frontend/src/assets/icon-abstellanlagen.svg

<?xml version="1.0" encoding="UTF-8" standalone="no"?>
<svg
   xmlns="http://www.w3.org/2000/svg"
   height="24px"
   viewBox="0 0 24 24"
   width="24px"
   fill="none">
  <path
     fill="white"
     d="m 5.4625859,16.825328 c 0,1.926742 1.5615593,3.488301 3.4883002,3.488301 1.9267419,0 3.4882989,-1.561559 3.4882989,-3.488301 0,-1.92674 -1.503234,-3.477105 -3.515086,-3.474907 -2.011852,0.0022 -3.4340413,1.635483 -3.4615131,3.474907 z M 7.4956108,15.50904 c 0.490644,-0.505099 0.8002766,-0.573738 1.1500486,-0.621353 0.098109,-0.01635 0.2016675,-0.02449 0.3052266,-0.02449 1.084644,0 1.962169,0.877524 1.962169,1.962169 0,1.084644 -0.877525,1.96217 -1.962169,1.96217 -1.0846431,0 -1.9621693,-0.877526 -1.9621693,-1.96217 0,-0.506894 0.1907665,-0.967458 0.5068941,-1.316288 z"/>
  <path
     fill="white"
     d="m 13.655406,8.1045756 c -0.362456,0 -0.654056,0.2916003 -0.654056,0.6540563 0,0.362456 0.2916,0.654057 0.654056,0.654057 h 0.700386 L 15.298724,11.15684 H 11.227223 L 10.480509,10.12125 C 10.357873,9.9495599 10.158932,9.8487269 9.9490883,9.8487269 H 8.4229564 c -0.3624562,0 -0.6540564,0.2915991 -0.6540564,0.6540561 0,0.362457 0.2916002,0.654057 0.6540564,0.654057 h 1.1909274 c 1.3523412,1.8743 2.7686012,3.72225 4.1035082,5.508299 l 2.595119,-3.636062 0.591375,1.092819 c -0.784867,0.64043 -1.286311,1.613338 -1.286311,2.703432 0,1.926742 1.56156,3.488301 3.488301,3.488301 1.926742,0 3.488301,-1.561559 3.488301,-3.488301 0,-1.92674 -1.561559,-3.4883 -3.488301,-3.4883 -0.367907,0 -0.722187,0.05727 -1.054667,0.163513 L 15.383206,8.5624149 C 15.230593,8.2789909 14.936267,8.1045756 14.614689,8.1045756 Z m 3.995196,7.4044644 0.880249,1.626966 c 0.17169,0.318851 0.569574,0.436036 0.885702,0.264347 0.316127,-0.171689 0.436037,-0.569575 0.264347,-0.885702 l -0.880251,-1.626964 c 0.09811,-0.01635 0.201668,-0.02449 0.305227,-0.02449 1.084644,0 1.962169,0.877524 1.962169,1.962168 0,1.084644 -0.877525,1.96217 -1.962169,1.96217 -1.084643,0 -1.96217,-0.877526 -1.96217,-1.96217 0,-0.506894 0.190767,-0.967458 0.506895,-1.316288 z m -5.480449,-3.044088 h 2.954156 l -1.436819,2.095494 -1.520063,-2.095494 z"/>
  <path
     d="m 5.6078293,4.7221891 v 3.5454926 l 1.6928332,0.00835 C 8.1014535,8.2727517 8.7205239,8.122246 9.1578414,7.8146747 9.5951586,7.5071038 9.8138178,7.0689207 9.8138178,6.5001251 9.8138178,5.9355427 9.5951586,5.4994661 9.1578414,5.1918952 8.7205239,4.8843296 8.1014489,4.7344964 7.3006625,4.7305441 Z m -1.7208725,-1.0491118 3.4137057,0.00836 c 1.4255348,0.00349 2.5017966,0.2401581 3.2287655,0.7204744 0.732648,0.4761029 1.098973,1.1755108 1.098973,2.0982236 0,0.9311395 -0.366325,1.6347609 -1.098973,2.1108635 C 9.8024591,9.0870976 8.7261764,9.3321833 7.3006625,9.3251493 L 5.6078293,9.3167928 5.5716059,14.28048 H 3.8507337 Z"
     fill="white" />
</svg>

<svg xmlns="http://www.w3.org/2000/svg" width="24" height="24" fill="none" viewBox="0 0 24 24"><path fill="#fff" d="M5.463 16.825a3.488 3.488 0 1 0 6.976 0c0-1.926-1.503-3.477-3.515-3.475-2.012.003-3.434 1.636-3.461 3.475m2.033-1.316c.49-.505.8-.574 1.15-.621a1.96 1.96 0 0 1 2.267 1.938 1.96 1.96 0 0 1-1.962 1.962 1.96 1.96 0 0 1-1.455-3.279"/><path fill="#fff" d="M13.655 8.105a.65.65 0 0 0-.654.654c0 .362.292.654.654.654h.7l.944 1.744h-4.072l-.746-1.036a.65.65 0 0 0-.532-.272H8.423a.65.65 0 0 0-.654.654c0 .362.292.654.654.654h1.19c1.353 1.874 2.77 3.722 4.104 5.508l2.596-3.636.59 1.093a3.488 3.488 0 1 0 1.147-.621l-2.667-4.939a.87.87 0 0 0-.768-.457Zm3.996 7.404.88 1.627a.653.653 0 1 0 1.15-.621l-.88-1.627a1.96 1.96 0 0 1 2.267 1.938 1.96 1.96 0 0 1-1.962 1.962 1.96 1.96 0 0 1-1.455-3.279m-5.48-3.044h2.953l-1.437 2.095-1.52-2.095z"/><path fill="#fff" d="M5.608 4.722v3.546l1.693.008c.8-.003 1.42-.154 1.857-.461q.656-.462.656-1.315 0-.846-.656-1.308C8.72 4.884 8.1 4.734 7.3 4.73ZM3.887 3.673l3.414.008c1.425.004 2.501.24 3.228.72q1.1.715 1.1 2.1 0 1.395-1.1 2.11c-.727.476-1.803.721-3.228.714l-1.693-.008-.036 4.963H3.85Z"/></svg>
